Modules/BetterCms.Module.Root/Scss/base_64/icons/cp-settings.svg

<svg xmlns="http://www.w3.org/2000/svg" width="17.969" height="17.969" viewBox="0 0 17.969 17.969">
 <g fill-rule="evenodd">
  <path fill="#656565" d="m12.563 10.87c-.686 0-1.337-.141-1.942-.376l-5.477 6.603c-1.156 1.159-3.03 1.159-4.186 0l-.12-.121c-1.156-1.16-1.156-3.039 0-4.199l6.643-5.546c-.198-.565-.326-1.164-.326-1.797 0-3.003 2.421-5.437 5.408-5.437.648 0 1.26.133 1.835.343l-1.627 1.634c-.892.896-.892 2.347 0 3.242.893.896 2.34.896 3.232 0l1.626-1.633c.21.58.343 1.198.343 1.851 0 3.002-2.422 5.436-5.409 5.436m-8.707 3.159c-.467-.469-1.223-.469-1.69 0-.467.468-.467 1.227 0 1.695.467.469 1.223.469 1.69 0 .467-.468.467-1.227 0-1.695"/>
  <path fill="#2e2e2e" d="m17.003 6.216c-.892.896-2.339.896-3.232 0-.174-.175-.304-.375-.411-.584.858.434 1.927.303 2.643-.416l1.626-1.633c.191.527.304 1.089.326 1.677l-.952.956m-3.44-5.219c-2.987 0-5.408 2.434-5.408 5.437 0 .633.128 1.232.326 1.797l-6.643 5.546c-1.006 1.009-1.135 2.563-.39 3.714-.173-.112-.338-.242-.49-.394l-.12-.121c-1.156-1.16-1.156-3.039 0-4.199l6.643-5.546c-.198-.565-.326-1.164-.326-1.797 0-3.003 2.421-5.437 5.408-5.437.648 0 1.26.133 1.835.343l-.67.673c-.056-.002-.108-.016-.165-.016"/>
 </g>
</svg>

<svg xmlns="http://www.w3.org/2000/svg" preserveAspectRatio="xMidYMid" width="17.969" height="17.969" viewBox="0 0 17.969 17.969">
  <g>
    <path fill="#656565" fill-rule="evenodd" d="M12.563,10.870 C11.877,10.870 11.226,10.729 10.621,10.494 L5.144,17.097 C3.988,18.256 2.114,18.256 0.958,17.097 L0.838,16.976 C-0.318,15.816 -0.318,13.937 0.838,12.777 L7.481,7.231 C7.283,6.666 7.155,6.067 7.155,5.434 C7.155,2.431 9.576,-0.003 12.563,-0.003 C13.211,-0.003 13.823,0.130 14.398,0.340 L12.771,1.974 C11.879,2.870 11.879,4.321 12.771,5.216 C13.664,6.112 15.111,6.112 16.003,5.216 L17.629,3.583 C17.839,4.163 17.972,4.781 17.972,5.434 C17.972,8.436 15.550,10.870 12.563,10.870 ZM3.856,14.029 C3.389,13.560 2.633,13.560 2.166,14.029 C1.699,14.497 1.699,15.256 2.166,15.724 C2.633,16.193 3.389,16.193 3.856,15.724 C4.323,15.256 4.323,14.497 3.856,14.029 Z"/>
    <path fill="#2e2e2e" fill-rule="evenodd" d="M17.003,6.216 C16.111,7.112 14.664,7.112 13.771,6.216 C13.597,6.041 13.467,5.841 13.360,5.632 C14.218,6.066 15.287,5.935 16.003,5.216 L17.629,3.583 C17.820,4.110 17.933,4.672 17.955,5.260 L17.003,6.216 ZM13.563,0.997 C10.576,0.997 8.155,3.431 8.155,6.434 C8.155,7.067 8.283,7.666 8.481,8.231 L1.838,13.777 C0.832,14.786 0.703,16.340 1.448,17.491 C1.275,17.379 1.110,17.249 0.958,17.097 L0.838,16.976 C-0.318,15.816 -0.318,13.937 0.838,12.777 L7.481,7.231 C7.283,6.666 7.155,6.067 7.155,5.434 C7.155,2.431 9.576,-0.003 12.563,-0.003 C13.211,-0.003 13.823,0.130 14.398,0.340 L13.728,1.013 C13.672,1.011 13.620,0.997 13.563,0.997 Z"/>
  </g>
</svg>
